X:1
T:Title
%%score { ( 1 3 4 ) | 2 }
L:1/8
M:6/8
K:Db
V:1 treble nm="Grand Piano"
V:3 treble 
V:4 treble 
V:2 bass 
V:1
 z3 z2[Q:1/4=90] [FA] | [FA][DF][FA] [GB][FA]F | AGG G2 G | cBA ABc | [Fd]3- [Fd]2 [Fd] | %5
 dBd [Fd][FA][FA] | [GB][FA][DF] [FA]2 [Fd] | ccc cBc | [Fd]6 | [FA][DF][FA] dcB | A6[K:bass] | %11
 BGB edB | c6 | [FA][DF][FA] [Fd][FA][FA] | BGB eBd | cBA ABc |[M:5/8] [Fd]-[Fd]- [Fd]3 |] %17
V:2
 z3 z2 [D,D] | [D,D][D,A,][D,D] [D,D][D,D][D,A,D] | [A,CF][A,CE][A,CE] [A,CE]2 [A,CE] | %3
 [A,EG][A,DG][A,CG] [A,CG][A,DG][A,EG] | [D,D]3- [D,D]2 [D,D] | %5
 [G,B,G][G,DG][G,B,G] [D,D][D,D][D,D] | [D,D][D,D][D,A,] [D,D]2 [D,D] | %7
 [A,EG][A,EG][A,EG] [A,EG][A,DG][A,EG] | [D,D]6 | [D,D][D,A,][D,D] [G,B,G][G,CG][G,DG] | %10
 [D,D][D,D][E,C] .[F,D]3 | [G,DG][G,B,][K:treble][G,DG] [G,B,G][G,B,G][G,EG] | %12
 [A,EG][A,E][A,D] [A,C]2 [A,CG] | [D,D][D,A,][D,D] [D,A,][D,D][D,D] | %14
 [G,DG][G,B,][K:treble][G,DG] [G,B,G][G,EG][G,EG] | [A,EG][A,DG][A,CG] [A,CG][A,DG][A,EG] | %16
[M:5/8][K:bass] [D,D]-[D,D]- [D,D]3 |] %17
V:3
 x6 | x6 | x6 | x6 | x6 | x6 | x6 | x6 | x6 | x6 | z3 F3[K:bass] | x6 | z GG G2 A | x6 | x6 | x6 | %16
[M:5/8] x5 |] %17
V:4
 x6 | x6 | x6 | x6 | x6 | x6 | x6 | x6 | x6 | x6 | FFG z2[K:bass] D, | x6 | x6 | x6 | x6 | x6 | %16
[M:5/8] x5 |] %17

